img/mail_form.svg

<svg width="16" height="12" viewBox="0 0 16 12" fill="none" xmlns="http://www.w3.org/2000/svg">
<path d="M14 0H2C1.175 0 0.5075 0.675 0.5075 1.5L0.5 10.5C0.5 11.325 1.175 12 2 12H14C14.825 12 15.5 11.325 15.5 10.5V1.5C15.5 0.675 14.825 0 14 0ZM13.7 3.1875L8.3975 6.5025C8.1575 6.6525 7.8425 6.6525 7.6025 6.5025L2.3 3.1875C2.1125 3.0675 2 2.865 2 2.6475C2 2.145 2.5475 1.845 2.975 2.1075L8 5.25L13.025 2.1075C13.4525 1.845 14 2.145 14 2.6475C14 2.865 13.8875 3.0675 13.7 3.1875Z" fill="#212121"/>
</svg>

<svg width="16" height="12" fill="none" xmlns="http://www.w3.org/2000/svg"><path d="M14 0H2C1.175 0 .507.675.507 1.5l-.007 9c0 .825.675 1.5 1.5 1.5h12c.825 0 1.5-.675 1.5-1.5v-9C15.5.675 14.825 0 14 0zm-.3 3.188L8.398 6.502a.759.759 0 01-.795 0L2.3 3.187a.637.637 0 11.675-1.08L8 5.25l5.025-3.143a.637.637 0 11.675 1.08z" fill="#212121"/></svg>
